material/.icons/material/grill-outline.svg

<svg xmlns="http://www.w3.org/2000/svg" viewBox="0 0 24 24"><path d="M17 22a3 3 0 10-2.82-4H9.14l1.99-3.06a6.36 6.36 0 001.74 0l1.02 1.56c.42-.5.96-.94 1.61-1.2l-.61-.93A7 7 0 0019 8H5a7 7 0 004.12 6.37l-3.95 6.08a1 1 0 001.67 1.09l1-1.54h6.34A3 3 0 0017 22m0-4a1 1 0 011 1c0 .55-.45 1-1 1s-1-.45-1-1a1 1 0 011-1m-9.58-8h9.16a5 5 0 01-9.16 0m1.99-3h1c.15-1.15.23-1.64-.91-2.96-.4-.5-.66-.77-.44-2.04h-.99a3.14 3.14 0 00.89 2.96c.22.24.79.67.45 2.04m2.48 0h1c.15-1.15.23-1.64-.89-2.96-.42-.5-.68-.78-.46-2.04h-.99a3.14 3.14 0 00.89 2.96c.23.24.8.67.45 2.04m2.52 0h1c.15-1.15.23-1.64-.91-2.96-.4-.5-.66-.77-.44-2.04h-.99a3.14 3.14 0 00.89 2.96c.22.24.79.67.45 2.04z"/></svg>

<?xml version="1.0" encoding="UTF-8"?><!DOCTYPE svg PUBLIC "-//W3C//DTD SVG 1.1//EN" "http://www.w3.org/Graphics/SVG/1.1/DTD/svg11.dtd"><svg xmlns="http://www.w3.org/2000/svg" xmlns:xlink="http://www.w3.org/1999/xlink" version="1.1" id="mdi-grill-outline" width="24" height="24" viewBox="0 0 24 24"><path d="M17 22A3 3 0 1 0 14.18 18H9.14L11.13 14.94A6.36 6.36 0 0 0 12.87 14.94L13.89 16.5C14.31 16 14.85 15.56 15.5 15.3L14.89 14.37A7 7 0 0 0 19 8H5A7 7 0 0 0 9.12 14.37L5.17 20.45A1 1 0 0 0 6.84 21.54L7.84 20H14.18A3 3 0 0 0 17 22M17 18A1 1 0 0 1 18 19C18 19.55 17.55 20 17 20S16 19.55 16 19A1 1 0 0 1 17 18M7.42 10H16.58A5 5 0 0 1 7.42 10M9.41 7H10.41C10.56 5.85 10.64 5.36 9.5 4.04C9.1 3.54 8.84 3.27 9.06 2H8.07A3.14 3.14 0 0 0 8.96 4.96C9.18 5.2 9.75 5.63 9.41 7M11.89 7H12.89C13.04 5.85 13.12 5.36 12 4.04C11.58 3.54 11.32 3.26 11.54 2H10.55A3.14 3.14 0 0 0 11.44 4.96C11.67 5.2 12.24 5.63 11.89 7M14.41 7H15.41C15.56 5.85 15.64 5.36 14.5 4.04C14.1 3.54 13.84 3.27 14.06 2H13.07A3.14 3.14 0 0 0 13.96 4.96C14.18 5.2 14.75 5.63 14.41 7Z" /></svg>
